img/circle-imgs/contact-header-bottom-background-img.svg

<svg width="200" height="225" viewBox="0 0 200 225" fill="none" xmlns="http://www.w3.org/2000/svg">
<path fill-rule="evenodd" clip-rule="evenodd" d="M200 100C200 44.7715 155.228 0 100 0C44.7715 0 0 44.7715 0 100C0 155.228 44.7715 200 100 200C155.228 200 200 155.228 200 100ZM133 100C133 81.7746 118.225 67 100 67C81.7746 67 67 81.7746 67 100C67 118.225 81.7746 133 100 133C118.225 133 133 118.225 133 100Z" fill="#012F34"/>
<rect x="43" width="43" height="43" transform="rotate(90 43 0)" fill="#79C8C7"/>
<path fill-rule="evenodd" clip-rule="evenodd" d="M200 124.486C200 69.258 155.228 24.4865 100 24.4865C44.7715 24.4865 0 69.258 0 124.486C0 179.715 44.7715 224.486 100 224.486C155.228 224.486 200 179.715 200 124.486ZM133 124.486C133 106.261 118.225 91.4865 100 91.4865C81.7746 91.4865 67 106.261 67 124.486C67 142.712 81.7746 157.486 100 157.486C118.225 157.486 133 142.712 133 124.486Z" fill="#F67E7E"/>
</svg>

<svg width="200" height="225" fill="none" xmlns="http://www.w3.org/2000/svg"><path fill-rule="evenodd" clip-rule="evenodd" d="M200 100C200 44.772 155.228 0 100 0S0 44.772 0 100s44.772 100 100 100 100-44.772 100-100Zm-67 0c0-18.225-14.775-33-33-33s-33 14.775-33 33 14.775 33 33 33 33-14.775 33-33Z" fill="#012F34"/><path fill="#79C8C7" d="M43 0v43H0V0z"/><path fill-rule="evenodd" clip-rule="evenodd" d="M200 124.486c0-55.228-44.772-100-100-100S0 69.258 0 124.486c0 55.229 44.772 100 100 100s100-44.771 100-100Zm-67 0c0-18.225-14.775-33-33-33s-33 14.775-33 33c0 18.226 14.775 33 33 33s33-14.774 33-33Z" fill="#F67E7E"/></svg>
